X: 23978
T: Lockdown, The
R: jig
M: 6/8
K: Amajor
|:EFA cec|BcA BAF|EFA c2e|fec f2f|
eaf e2c|BcA BAF|EFA cec|1 EcB A2F:|2 EcB A2c||
|:Ace faf|fec BAF|Ace faf|efa a2f|
eaf e2c|BcA BAF|EFA cec|1 EcB A2c:|2 EcB A3||

